X:1
T:Notre Père
T:Notre Père
T:Maurice Duruflé
C:Maurice Duruflé
%%score ( 1 2 ) ( 3 4 )
L:1/8
Q:1/4=66
M:3/4
K:F
V:1 treble nm="Alto"
V:2 treble 
V:3 bass nm="Bass"
V:4 bass 
V:1
"^Andante"!p!"^dolce" FG | A2 AA AG | A4 GA | F2 D2 FF | G4 Ac || c=B c2 c2 | cc dd cc | %7
w: No- tre|Pè- re qui es aux|Cieux, que ton|nom soit sanc- ti-|fié, que ton|rè- gne vien- ne,|que ta vo- lon- té soit|
[M:2/4] A2 F2 |[M:3/4] EE FA AG | A4 cc |[M:2/4] B2 BB | A2 FA | A2 GF | G2 F2 | BA G2 | %15
w: fai- te|sur la ter- re comme au|ciel. Don- ne|nous au- jour-|d'hui no- tre|pain de ce|jour, par-|don- ne- nous|
[M:3/4] FE D2 C2 |[M:2/4] C2 CC | CC DE | F2"^cresc." (FG) | AA AG | AB c2 |!mf! c2 dd | cc (AG) | %23
w: nos of- fen- ses|com- me nous|par- don- nons aus-|si à *|ceux qui nous ont|of- fen- sés,|et ne nous|sou- mets pas *|
[M:3/4] AA FF"^dim." G2 ||[M:2/4]"^Molto rall." FF DD |!>(! C2 D2!>)! |!p! F4- | F2 z2 || F2 FF | %29
w: à la ten- ta- tion,|mais dé- li- vre-|nous du|mal.||Car c'est à|
 G2 FD | F3 D | FF FA | A2 GF | G4 | G2 FF | D2 DD | C2 C2 | z2 F2 | F4 |] %39
w: toi qu'ap- par-|tiennent, le|rè- gne, la puis-|sance et la|gloi-|re, pour les|siè- cles des|siè- cles.|A-|men|
V:2
 FF | F2 FF FE | F4 EE | D2 D2 DD | E4 DD || FF E2 E2 | FF FF EE |[M:2/4] F2 =B,2 | %8
[M:3/4] EE FF EE | E4 AA |[M:2/4] A2 GG | F2 FF | F2 EE | E2 D2 | FF FE |[M:3/4] DD G,2 G,2 | %16
[M:2/4] A,2 B,B, | A,A, G,G, | C2 A,2 | DD DD | CD _E2 | D2 =EE | GG F2 |[M:3/4] FF FF E2 || %24
[M:2/4] DD G,G, | B,2 G,2 | A,4- | A,2 z2 || D2 DD | D2 DD | C3 C | DD DD | C2 CC | C4 | E2 FF | %35
 B,2 B,B, | G,2 G,2 | x2 B,2 | A,4 |] %39
V:3
"^dolce"!p! A,B, | C2 CC CC | C4 CC | A,2 F,2 A,A, | C4 A,A, || G,G, G,2 G,2 | A,A, G,G, A,A, | %7
[M:2/4] A,2 A,2 |[M:3/4] A,A, CC =B,B, | C4 CC |[M:2/4] F2 EE | E2 DD | D2 DD | C2 C2 | DC B,2 | %15
[M:3/4] A,G, F,2 E,2 |[M:2/4] C,2 D,D, | C,C, F,F, | (F,E,) D,2 | F,G, F,F, | F,F, G,2 | A,2 G,G, | %22
 CC (CB,) |[M:3/4] CC CC B,2 ||[M:2/4] A,A, F,F, | F,2 F,2 | C,4- | C,2 z2 || A,2 A,A, | G,2 G,G, | %30
 C3 C | B,B, B,B, | F,2 F,F, | E,4 | G,2 B,B, | F,2 F,F, | E,2 E,2 | z2 D,2 | C,4 |] %39
V:4
 F,F, | F,2 F,F, F,C, | F,4 C,C, | D,2 D,2 D,D, | C,4 F,F, || G,G, C,2 C,2 | F,F, _B,,B,, C,C, | %7
[M:2/4] D,2 D,2 |[M:3/4] C,C, D,D, E,E, | A,,4 A,A, |[M:2/4] D2 DD | C2 CC | B,2 B,B, | A,2 A,2 | %14
 G,G, C,2 |[M:3/4] D,D, B,,2 C,2 |[M:2/4] F,,2 F,,F,, | F,,F,, B,,B,, | A,,2 D,2 | C,C, B,,B,, | %20
 A,,A,, F,,2 | B,,2 B,,B,, | A,,A,, D,2 |[M:3/4] E,E, D,D, D,2 ||[M:2/4] C,C, B,,B,, | D,2 B,,2 | %26
 F,,4- | F,,2 z2 || D,2 D,D, | B,,2 B,,B,, | A,,3 A,, | B,,B,, B,,B,, | C,2 C,C, | C,4 | C,2 D,D, | %35
 B,,2 B,,B,, | C,2 C,2 | x2 B,,2 | F,,4 |] %39

